src/lib/assets/images/figma-logo.svg

<svg width="25" height="37" viewBox="0 0 25 37" fill="none" xmlns="http://www.w3.org/2000/svg">
<path d="M6.25 36.7909C9.7 36.7909 12.5 34.0601 12.5 30.6954V24.6H6.25C2.8 24.6 0 27.3307 0 30.6954C0 34.0601 2.8 36.7909 6.25 36.7909Z" fill="#0ACF83"/>
<path d="M0 18.5045C0 15.1398 2.8 12.409 6.25 12.409H12.5V24.5999H6.25C2.8 24.5999 0 21.8692 0 18.5045Z" fill="#A259FF"/>
<path d="M0.00012207 6.31355C0.00012207 2.94885 2.80012 0.218079 6.25012 0.218079H12.5001V12.409H6.25012C2.80012 12.409 0.00012207 9.67825 0.00012207 6.31355Z" fill="#F24E1E"/>
<path d="M12.5001 0.218079H18.7501C22.2001 0.218079 25.0001 2.94885 25.0001 6.31355C25.0001 9.67825 22.2001 12.409 18.7501 12.409H12.5001V0.218079Z" fill="#FF7262"/>
<path d="M25.0001 18.5045C25.0001 21.8692 22.2001 24.5999 18.7501 24.5999C15.3001 24.5999 12.5001 21.8692 12.5001 18.5045C12.5001 15.1398 15.3001 12.409 18.7501 12.409C22.2001 12.409 25.0001 15.1398 25.0001 18.5045Z" fill="#1ABCFE"/>
</svg>

<svg xmlns="http://www.w3.org/2000/svg" width="25" height="37" fill="none"><path fill="#0ACF83" d="M6.25 36.79c3.45 0 6.25-2.73 6.25-6.095V24.6H6.25C2.8 24.6 0 27.33 0 30.695c0 3.365 2.8 6.096 6.25 6.096Z"/><path fill="#A259FF" d="M0 18.505c0-3.365 2.8-6.096 6.25-6.096h6.25v12.19H6.25C2.8 24.6 0 21.87 0 18.505Z"/><path fill="#F24E1E" d="M0 6.314C0 2.949 2.8.218 6.25.218h6.25V12.41H6.25C2.8 12.409 0 9.679 0 6.314Z"/><path fill="#FF7262" d="M12.5.218h6.25C22.2.218 25 2.948 25 6.314c0 3.364-2.8 6.095-6.25 6.095H12.5V.219Z"/><path fill="#1ABCFE" d="M25 18.505c0 3.364-2.8 6.095-6.25 6.095s-6.25-2.73-6.25-6.096c0-3.364 2.8-6.095 6.25-6.095S25 15.139 25 18.504Z"/></svg>
